!!!!SEGMENT: Mlu2002-Fiere_attropos.krn
!!!id: Mlu2002
!!!AGN: Motet
!!!SCT: Lowinsky (1968)
!!!voices: 5
!!!COM: Pierre Moulu
!!!OTL: Fiere attropos
**kern	**kern	**kern	**kern	**kern
*part5	*part4	*part3	*part2	*part1
*staff5	*staff4	*staff3	*staff2	*staff1
*I"Bassus III	*I"Bassus II	*I"Bassus I	*I"Tenor II	*I"Tenor I
*I'B. III	*I'B. II	*I'B. I	*I'T. II	*I'T. I
*clefF4	*clefF4	*clefF4	*clefGv2	*clefGv2
*k[b-]	*k[b-]	*k[b-]	*k[]	*k[b-]
*F:	*F:	*F:	*C:	*F:
*M2/1	*M2/1	*M2/1	*M2/1	*M2/1
*met(C|)	*met(C|)	*met(C|)	*met(C)	*met(C|)
!!section: Prima pars: Fiere attropos
!!!OMD: Prima pars: Fiere attropos
=1	=1	=1	=1	=1
0r	0r	0r	0r	0G
=2	=2	=2	=2	=2
0r	0r	0C	0r	1G
.	.	.	.	1G
=3	=3	=3	=3	=3
0r	0r	1C	0r	0c
.	.	1C	.	.
=4	=4	=4	=4	=4
0r	0r	0F	0r	0r
=5	=5	=5	=5	=5
0r	0r	1r	0r	1c
.	.	1F	.	1c
=6	=6	=6	=6	=6
0r	0r	1F	0r	1.f
.	.	1F	.	.
.	.	.	.	2e
=7	=7	=7	=7	=7
0r	0GG	1.B-y	0r	0d
.	.	2A	.	.
=8	=8	=8	=8	=8
0CC	1GG	[0G	0r	0e
.	1GG	.	.	.
=9	=9	=9	=9	=9
1CC	0C	0G]	0r	1r
1CC	.	.	.	1c
=10	=10	=10	=10	=10
0FF	1r	[0A	0r	1c
.	1C	.	.	1c
=11	=11	=11	=11	=11
1r	1C	0A]	0r	[0f
1FF	1C	.	.	.
=12	=12	=12	=12	=12
1FF	1.F	1r	0r	0f]
1FF	.	1F	.	.
.	2E	.	.	.
=13	=13	=13	=13	=13
1.BB-y	1.D	1F	0r	0r
.	.	1F	.	.
2AA	2C	.	.	.
=14	=14	=14	=14	=14
1GG	1BB-y	1G	0r	0d
1FF	1AA	[1A	.	.
=15	=15	=15	=15	=15
0GG	0BB-y	2A]	[0D	1d
.	.	4G	.	.
.	.	4F	.	.
.	.	1G	.	1d
=16	=16	=16	=16	=16
1.DD	2r	1.A	0D]	2.f
.	2AA	.	.	.
.	.	.	.	4e
.	1AA	.	.	4d
.	.	.	.	4c
2DD	.	4G	.	[2d
.	.	4F	.	.
=17	=17	=17	=17	=17
1DD	1AA	0F	[0D	2d]
.	.	.	.	4c
.	.	.	.	4B-y
1DD	[1D	.	.	1A
=18	=18	=18	=18	=18
1GG	2D]	1r	0D]	0G
.	2C	.	.	.
1GG	2.BB-y	1G	.	.
.	4AA	.	.	.
=19	=19	=19	=19	=19
0CC	1GG	1G	0E	0r
.	[1C	1G	.	.
=20	=20	=20	=20	=20
1.FF	0C_	1.A	0F	1r
.	.	.	.	1c
4EE	.	4G	.	.
4DD	.	4F	.	.
=21	=21	=21	=21	=21
0CC	2C]	2E	[0G	1c
.	4BB-y	2C	.	.
.	4AA	.	.	.
.	[1GG	1E	.	1c
=22	=22	=22	=22	=22
1r	1GG]	0D	0G]	1.B-y
1GG	1r	.	.	.
.	.	.	.	4A
.	.	.	.	4G
=23	=23	=23	=23	=23
1GG	1D	2r	0G	0B-y
.	.	2.BB-y	.	.
1GG	1D	.	.	.
.	.	4C	.	.
.	.	4D	.	.
.	.	4E	.	.
=24	=24	=24	=24	=24
2.DD	1D	4F	0F	1A
.	.	4G	.	.
.	.	1A	.	.
4EE	.	.	.	.
2FF	2.AA	.	.	1r
4EE	.	4G	.	.
4DD	4BB-y	4F	.	.
=25	=25	=25	=25	=25
[0CC	2C	2A	[0E	1r
.	4BB-y	2.G	.	.
.	4AA	.	.	.
.	1GG	.	.	1c
.	.	4F	.	.
.	.	4E	.	.
.	.	4D	.	.
=26	=26	=26	=26	=26
0CC]	2r	1C	0E]	1c
.	2C	.	.	.
.	1C	2r	.	1c
.	.	2G	.	.
=27	=27	=27	=27	=27
1r	1C	1G	0r	1.G
1GG	[1GG	1G	.	.
.	.	.	.	2A
=28	=28	=28	=28	=28
1GG	2GG]	1.D	0r	2B-y
.	2AA	.	.	2c
1GG	2BB-y	.	.	[1d
.	2C	2E	.	.
=29	=29	=29	=29	=29
1.DD	1.D	1.F	0r	2d]
.	.	.	.	4c
.	.	.	.	4B-y
.	.	.	.	[1A
2EE	4C	4E	.	.
.	4BB-y	4D	.	.
=30	=30	=30	=30	=30
2FF	4AA	1.C	0F	2A]
.	4BB-y	.	.	.
2GG	2C	.	.	2G
1AA	1FF	.	.	[1c
.	.	2D	.	.
=31	=31	=31	=31	=31
0GG	2r	2.E	0G	2c]
.	1BB-y	.	.	4B-y
.	.	4F	.	4A
.	.	1D	.	1B-y
.	4AA	.	.	.
.	4GG	.	.	.
=32	=32	=32	=32	=32
0CC	2.AA	[0C	0E	0c
.	4BB-y	.	.	.
.	1GG	.	.	.
=33	=33	=33	=33	=33
0r	0FF	1C]	0F	1r
.	.	1r	.	1c
=34	=34	=34	=34	=34
0r	0r	0G	0E	1c
.	.	.	.	1c
=35	=35	=35	=35	=35
0r	0GG	1G	[0D	0d
.	.	1G	.	.
=36	=36	=36	=36	=36
0r	1GG	1B-y	0D]	1r
.	1GG	2r	.	1d
.	.	2B-y	.	.
=37	=37	=37	=37	=37
0r	0BB-y	1.B-y	[0D	1.d
.	.	2A	.	2c
=38	=38	=38	=38	=38
0r	1r	1G	0D]	1B-y
.	2r	1F	.	1A
.	2D	.	.	.
=39	=39	=39	=39	=39
1r	1.E	1G	0r	0G
1GG	.	2r	.	.
.	2D	2G	.	.
=40	=40	=40	=40	=40
1.AA	1C	1.F	0r	0r
.	1BB-y	.	.	.
2GG	.	2E	.	.
=41	=41	=41	=41	=41
1.FF	1AA	1D	0r	0r
.	2r	1C	.	.
2EE	2GG	.	.	.
=42	=42	=42	=42	=42
[0DD	1.BB-y	1D	0r	1r
.	.	2r	.	1d
.	2AA	2A	.	.
=43	=43	=43	=43	=43
0DD]	0D	1.A	0F	1.f
.	.	2G	.	2e
=44	=44	=44	=44	=44
0r	1D	1F	0A	1d
.	[1AA	1E	.	1c
=45	=45	=45	=45	=45
0DD	1AA]	1.D	[0A	0d
.	2r	.	.	.
.	2AA	2D	.	.
=46	=46	=46	=46	=46
1DD	1AA	1.F	0A]	1r
1DD	1AA	.	.	1d
.	.	2E	.	.
=47	=47	=47	=47	=47
0GG	1.BB-y	0D	0G	1d
.	.	.	.	1d
.	4AA	.	.	.
.	4GG	.	.	.
=48	=48	=48	=48	=48
0CC	1GG	1C	[0G	1.e
.	2r	2r	.	.
.	2GG	2C	.	4d
.	.	.	.	4c
=49	=49	=49	=49	=49
0r	1.C	1.E	0G]	1c
.	.	.	.	1r
.	2GG	2D	.	.
=50	=50	=50	=50	=50
0r	1BB-y	1D	0F	0r
.	1AA	1C	.	.
=51	=51	=51	=51	=51
1r	0GG	1D	[0G	1r
1GG	.	2r	.	1d
.	.	2B-y	.	.
=52	=52	=52	=52	=52
1.C	0r	2c	0G]	1.e-i
.	.	4B-y	.	.
.	.	4A	.	.
.	.	2G	.	.
2GG	.	[2B-y	.	2d
=53	=53	=53	=53	=53
1BB-y	1r	4B-]	0r	1d
.	.	4A	.	.
.	.	1G	.	.
1AA	1C	.	.	1c
.	.	2F#i	.	.
=54	=54	=54	=54	=54
0GG	1D	1G	0r	0B-y
.	1E	2r	.	.
.	.	2G	.	.
=55	=55	=55	=55	=55
1r	1.F	1.A	0r	0r
1FF	.	.	.	.
.	2E	2A	.	.
=56	=56	=56	=56	=56
1GG	1D	1B-y	0r	1r
1AA	1C	1c	.	2r
.	.	.	.	2c
=57	=57	=57	=57	=57
1BB-y	2r	1r	0r	1d
.	2GG	.	.	.
1C	[1C	1G	.	1e
=58	=58	=58	=58	=58
0FF	2C]	2.c	0r	1.f
.	2C	.	.	.
.	.	4B-y	.	.
.	[1C	2A	.	.
.	.	[2G	.	4e
.	.	.	.	4d
=59	=59	=59	=59	=59
1r	2C]	4G]	0G	0c
.	.	4C	.	.
.	4BB-y	1F	.	.
.	4AA	.	.	.
1CC	1GG	.	.	.
.	.	2E	.	.
=60	=60	=60	=60	=60
1.FF	1FF	1.F	[0A	1r
.	2r	.	.	1c
2FF	2FF	4E	.	.
.	.	4D	.	.
=61	=61	=61	=61	=61
1FF	2.AA	2.C	1A]	1c
.	4BB-y	4D	.	.
1EE	2C	2E	1G	1c
.	2C	[2C	.	.
=62	=62	=62	=62	=62
0DD	0FF	2C]	0F	1d
.	.	4BBni	.	.
.	.	4AA	.	.
.	.	1BBni	.	1d
=63	=63	=63	=63	=63
[0CCl	1GG	2C	[0El	1.e
.	.	2GG	.	.
.	2r	2.C	.	.
.	2GG	.	.	4d
.	.	4BB-y	.	4c
=64	=64	=64	=64	=64
0CC_	2.C	2AA	0E_	[0cl
.	.	2GG	.	.
.	4BB-y	.	.	.
.	2AA	2C	.	.
.	2GG	4BB-y	.	.
.	.	4AA	.	.
=65	=65	=65	=65	=65
0CC_	2.C	1GG	0E_	0c_
.	8BB-yL	.	.	.
.	8AAJ	.	.	.
.	2GG	[1Cl	.	.
.	2AA	.	.	.
=	=	=	=	=
00CC]	00GG	00C]	00E]	00c]
=||	=||	=||	=||	=||
*M2/1	*M2/1	*M2/1	*M2/1	*M2/1
*met(C|)	*met(C|)	*met(C|)	*met(C|)	*met(C|)
!!section: Secunda pars: Quete nuysoit
!!!OMD: Secunda pars: Quete nuysoit
!	!	!	!LO:TX:a:t=Canon&colon; tenor II (prima pars)/tenor II (secunda pars) at the fourth	!
0C	0r	0G	0r	0e
=66	=66	=66	=66	=66
1C	0r	1G	0r	1e
1BB-y	.	1G	.	1d
=67	=67	=67	=67	=67
0AA	0F	0A	0r	0c
=68	=68	=68	=68	=68
1r	1F	1r	0r	1r
1AA	1E	1A	.	1c
=69	=69	=69	=69	=69
1.BB-y	0D	1G	0r	1.d
.	.	1F	.	.
2AA	.	.	.	2c
=70	=70	=70	=70	=70
1GG	1r	1G	0r	1.B-y
1GG	1D	1G	.	.
.	.	.	.	2G
=71	=71	=71	=71	=71
0FF	1.F	[0C	0r	0A
.	2F	.	.	.
=72	=72	=72	=72	=72
0CC	1E	1C]	0G	[0G
.	[1C	[1E	.	.
=73	=73	=73	=73	=73
1r	2C]	2E]	0G	0G]
.	4BB-y	4D	.	.
.	4AA	4C	.	.
2r	1BB-y	2D	.	.
2GG	.	2E	.	.
=74	=74	=74	=74	=74
2FF	1C	0F	1A	1r
2EE	.	.	.	.
1DD	1FF	.	1B	1d
=75	=75	=75	=75	=75
[0CC	0GG	1r	0c	1.e
.	.	2r	.	.
.	.	2G	.	2c
=76	=76	=76	=76	=76
1CC]	1r	1G	1c	1e
1r	1D	1G	1B	[1d
=77	=77	=77	=77	=77
0DD	1.F	2A	0A	2d]
.	.	1D	.	4c
.	.	.	.	4B-y
.	.	.	.	[1A
.	2F	4C	.	.
.	.	4BB-y	.	.
=78	=78	=78	=78	=78
1.FF	0F	0AA	0r	1A]
.	.	.	.	1r
2FF	.	.	.	.
=79	=79	=79	=79	=79
0GG	1D	2r	1r	1r
.	.	2D	.	.
.	[1E	[1G	1B	2r
.	.	.	.	2G
=80	=80	=80	=80	=80
1EE	2E]	2G]	1c	1.c
.	4D	2G	.	.
.	4C	.	.	.
1FF	1C	1A	1A	.
.	.	.	.	2c
=81	=81	=81	=81	=81
0DD	0r	0F	1B	0d
.	.	.	1A	.
=82	=82	=82	=82	=82
0r	0r	1.G	0G	2.B-y
.	.	.	.	4c
.	.	.	.	4d
.	.	.	.	4G
.	.	2F	.	[2d
=83	=83	=83	=83	=83
0r	1r	2E	0G	4d]
.	.	.	.	4c
.	.	4D	.	1c
.	.	4C	.	.
.	2r	1D	.	.
.	2GG	.	.	2Bni
=84	=84	=84	=84	=84
1CC	2GG	1C	0r	1c
.	2GG	.	.	.
2CC	[1C	2r	.	2r
2CC	.	2C	.	2G
=85	=85	=85	=85	=85
1.FF	2C]	2C	0r	1A
.	4BB-y	2C	.	.
.	4AA	.	.	.
.	1AA	1F	.	1A
4EE	.	.	.	.
4DD	.	.	.	.
=86	=86	=86	=86	=86
0GG	2r	2E	1B	1.B-y
.	2GG	2D	.	.
.	[1BB-y	1G	1d	.
.	.	.	.	4A
.	.	.	.	4G
=87	=87	=87	=87	=87
2r	2BB-]	[0F	0d	1d
2DD	2BB-y	.	.	.
[1FF	[1AA	.	.	1r
=88	=88	=88	=88	=88
2FF]	1AA]	1F]	1c	1r
2FF	.	.	.	.
1EE	1GG	1r	[1c	2r
.	.	.	.	2c
=89	=89	=89	=89	=89
0DD	0FF	1r	1c]	1.f
.	.	1D	1B	.
.	.	.	.	2f
=90	=90	=90	=90	=90
0CC	2r	1.G	0c	2.e
.	2C	.	.	.
.	.	.	.	4d
.	[1E	.	.	1c
.	.	2G	.	.
=91	=91	=91	=91	=91
1r	2E]	1.G	0r	0B-y
.	2E	.	.	.
1GG	1D	.	.	.
.	.	2F	.	.
=92	=92	=92	=92	=92
1.C	2.C	1E	0r	0r
.	4BB-y	.	.	.
.	1AA	1F	.	.
2C	.	.	.	.
=93	=93	=93	=93	=93
1BB-y	0r	2D	0r	2r
.	.	1G	.	2G
[1AA	.	.	.	[1c
.	.	4F#i	.	.
.	.	4E	.	.
=94	=94	=94	=94	=94
1AA]	1r	1F#i	1c	2c]
.	.	.	.	2c
1GG	2r	1G	[1d	[1B-y
.	2GG	.	.	.
=95	=95	=95	=95	=95
0r	1GG	1r	2d]	2B-]
.	.	.	2c	2A
.	1GG	1D	1B	1G
=96	=96	=96	=96	=96
0DD	1D	1D	[0Al	0F
.	1r	1D	.	.
=97	=97	=97	=97	=97
1DD	0D	0F	0A_	1r
1DD	.	.	.	1A
=98	=98	=98	=98	=98
[0FF	1D	1r	0A_	1A
.	1C	1F	.	1A
=99	=99	=99	=99	=99
1FF]	0C	1F	0A_	0c
1r	.	1F	.	.
=100	=100	=100	=100	=100
0DD	1r	1.A	0A_	1r
.	1D	.	.	1A
.	.	2G	.	.
=101	=101	=101	=101	=101
1DD	1D	1.F	0A_	1A
1DD	1D	.	.	1A
.	.	4E	.	.
.	.	4D	.	.
=102	=102	=102	=102	=102
[0AAA [0AAl	[0Cl	1E	0A_	1.c
.	.	1F	.	.
.	.	.	.	4B-y
.	.	.	.	4A
=103	=103	=103	=103	=103
00AAA] 00AA]	00C]	00El	00A]	00Al
==	==	==	==	==
*-	*-	*-	*-	*-
!!!system-decoration: [*]
!!!RDF**kern: i = editorial accidental
!!!RDF**kern: l = terminal long
!!!ENC: Benjamin Ory
!!!END: 2021/1/25
!!!EED: Benjamin Ory
!!!EEV: 2021/05/12
!!!YEC: Copyright 2021 Benjamin Ory, All Rights Reserved
!!!ONB: Translated from MusicXML on 2021/05/12
